icons/lockup-github-16.svg

<svg width="68" height="16" viewBox="0 0 68 16" fill="none" xmlns="http://www.w3.org/2000/svg">
<path d="M24.6063 2.05828C27.4021 2.05828 29.0912 3.25241 29.63 5.26194L27.1255 5.85897C26.8197 4.76684 25.946 4.16979 24.6063 4.16979C22.6113 4.16979 21.5337 5.4803 21.5337 7.97033C21.5337 10.4604 22.5822 11.8001 24.548 11.8002C26.2039 11.8002 27.2474 10.8694 27.4091 9.26631H24.3442V7.16945H29.9359V8.49458C29.9359 11.9748 27.9118 13.9115 24.5044 13.9115C21.126 13.9115 19 11.5962 19 7.97033C19 4.34448 21.1697 2.05828 24.6063 2.05828Z" fill="#010409"/>
<path d="M53.1593 10.4314C53.1594 11.4361 53.6108 11.9895 54.47 11.9895C55.4602 11.9895 56.2174 11.072 56.2174 9.81971V5.50942H58.5326V13.6932H56.2174V12.3098C55.7806 13.198 54.7321 13.8387 53.6108 13.8387C51.8197 13.8387 50.8441 12.8486 50.8441 11.0429V5.50942H53.1593V10.4314Z" fill="#010409"/>
<path fill-rule="evenodd" clip-rule="evenodd" d="M62.0552 7.00925C62.5265 6.01906 63.5895 5.32007 64.6618 5.32007C66.895 5.32008 68.0745 6.86369 67.9964 9.58673C68.0745 12.2806 66.8513 13.8387 64.6618 13.8387C63.5458 13.8387 62.5265 13.198 62.0407 12.2806V13.6932H59.7398V2.27677H62.0552V7.00925ZM63.8463 7.25688C62.8905 7.25691 62.1333 8.18889 62.0552 9.47031V9.60137C62.1333 10.9264 62.8905 11.902 63.8463 11.9021C65.0456 11.9021 65.701 11.0138 65.6229 9.58673C65.701 8.14512 65.0456 7.25688 63.8463 7.25688Z" fill="#010409"/>
<path d="M33.1103 13.6932H30.8096V5.50942H33.1103V13.6932Z" fill="#010409"/>
<path d="M37.7456 5.50942H39.4494V7.43158H37.7456V11.1448C37.7456 11.5963 37.9495 11.771 38.4009 11.771H39.4494V13.6932H37.5709C36.0419 13.6932 35.4449 13.0378 35.4449 11.6544V7.43158H33.9887V5.50942H35.4449V3.87852L37.7456 3.33978V5.50942Z" fill="#010409"/>
<path d="M42.8958 2.27677V6.90733H47.2352V2.27677H49.7108V13.6932H47.2352V9.12076H42.8958V13.6932H40.4204V2.27677H42.8958Z" fill="#010409"/>
<path d="M31.96 2C32.7318 2.00002 33.3288 2.59716 33.3288 3.36892C33.3288 4.14065 32.7318 4.73766 31.96 4.73768C31.1883 4.73768 30.5911 4.14067 30.5911 3.36892C30.5911 2.59714 31.1882 2 31.96 2Z" fill="#010409"/>
<path d="M6.76562 11.3281C4.70312 11.0781 3.25 9.59375 3.25 7.67188C3.25 6.89063 3.53125 6.04688 4 5.48438C3.79688 4.96875 3.82812 3.875 4.0625 3.42188C4.6875 3.34375 5.53125 3.67188 6.03125 4.125C6.625 3.9375 7.25 3.84375 8.01562 3.84375C8.78125 3.84375 9.40625 3.9375 9.96875 4.10938C10.4531 3.67188 11.3125 3.34375 11.9375 3.42188C12.1562 3.84375 12.1875 4.9375 11.9844 5.46875C12.4844 6.0625 12.75 6.85938 12.75 7.67188C12.75 9.59375 11.2969 11.0469 9.20312 11.3125C9.73438 11.6562 10.0938 12.4062 10.0938 13.2656V14.8906C10.0938 15.3594 10.4844 15.625 10.9531 15.4375C13.7812 14.3594 16 11.5312 16 8.03125C16 3.60938 12.4062 0 7.98438 0C3.5625 0 0 3.60938 0 8.03125C0 11.5 2.20312 14.375 5.17188 15.4531C5.59375 15.6094 6 15.3281 6 14.9062V13.6563C5.78125 13.75 5.5 13.8125 5.25 13.8125C4.21875 13.8125 3.60938 13.25 3.17188 12.2031C3 11.7812 2.8125 11.5313 2.45312 11.4844C2.26562 11.4688 2.20312 11.3906 2.20312 11.2969C2.20312 11.1094 2.51562 10.9688 2.82812 10.9688C3.28125 10.9688 3.67188 11.25 4.07812 11.8281C4.39062 12.2813 4.71875 12.4844 5.10938 12.4844C5.5 12.4844 5.75 12.3438 6.10938 11.9844C6.375 11.7188 6.57812 11.4844 6.76562 11.3281Z" fill="#010409"/>
</svg>

<svg xmlns="http://www.w3.org/2000/svg" width="68" height="16" viewBox="0 0 68 16"><path d="M24.606 2.058c2.796 0 4.485 1.194 5.024 3.204l-2.504.597c-.306-1.092-1.18-1.69-2.52-1.69-1.995 0-3.072 1.311-3.072 3.801s1.048 3.83 3.014 3.83c1.656 0 2.7-.93 2.861-2.534h-3.065V7.17h5.592v1.326c0 3.48-2.024 5.417-5.432 5.417-3.378 0-5.504-2.316-5.504-5.942s2.17-5.912 5.606-5.912m28.554 8.372c0 1.005.45 1.559 1.31 1.559.99 0 1.747-.918 1.747-2.17V5.51h2.316v8.183h-2.316V12.31c-.436.888-1.485 1.529-2.606 1.529-1.791 0-2.767-.99-2.767-2.796V5.509h2.315z"/><path fill-rule="evenodd" d="M62.055 7.01c.471-.99 1.535-1.69 2.607-1.69 2.233 0 3.412 1.544 3.334 4.267.079 2.694-1.145 4.252-3.334 4.252-1.116 0-2.136-.641-2.621-1.558v1.412H59.74V2.277h2.315zm1.791.247c-.955 0-1.713.932-1.79 2.213v.131c.077 1.325.835 2.301 1.79 2.301 1.2 0 1.855-.888 1.777-2.315.078-1.442-.577-2.33-1.777-2.33"/><path d="M33.11 13.693h-2.3V5.51h2.3zm4.636-8.183h1.703v1.922h-1.703v3.713c0 .451.203.626.655.626h1.048v1.922h-1.878c-1.53 0-2.126-.655-2.126-2.039V7.432h-1.456V5.509h1.456V3.88l2.3-.54zm5.15-3.233v4.63h4.34v-4.63h2.475v11.416h-2.476V9.121h-4.34v4.572H40.42V2.277zM31.96 2a1.35 1.35 0 0 1 1.369 1.369 1.35 1.35 0 0 1-1.369 1.369 1.35 1.35 0 0 1-1.369-1.37A1.35 1.35 0 0 1 31.96 2M6.766 11.328c-2.063-.25-3.516-1.734-3.516-3.656 0-.781.281-1.625.75-2.188-.203-.515-.172-1.609.063-2.062.625-.078 1.468.25 1.968.703.594-.187 1.219-.281 1.985-.281.765 0 1.39.094 1.953.265.484-.437 1.344-.765 1.969-.687.218.422.25 1.515.046 2.047.5.593.766 1.39.766 2.203 0 1.922-1.453 3.375-3.547 3.64.531.344.89 1.094.89 1.954v1.625c0 .468.391.734.86.547C13.781 14.359 16 11.53 16 8.03 16 3.61 12.406 0 7.984 0 3.563 0 0 3.61 0 8.031a7.88 7.88 0 0 0 5.172 7.422c.422.156.828-.125.828-.547v-1.25c-.219.094-.5.156-.75.156-1.031 0-1.64-.562-2.078-1.609-.172-.422-.36-.672-.719-.719-.187-.015-.25-.093-.25-.187 0-.188.313-.328.625-.328.453 0 .844.281 1.25.86.313.452.64.655 1.031.655s.641-.14 1-.5c.266-.265.47-.5.657-.656"/></svg>
